bicons/22x22/documents/document-user-canceled.svg

<?xml version="1.0" encoding="UTF-8" standalone="no"?>
<!-- Created with Inkscape (http://www.inkscape.org/) -->

<svg
   xmlns:dc="http://purl.org/dc/elements/1.1/"
   xmlns:cc="http://creativecommons.org/ns#"
   xmlns:rdf="http://www.w3.org/1999/02/22-rdf-syntax-ns#"
   xmlns:svg="http://www.w3.org/2000/svg"
   xmlns="http://www.w3.org/2000/svg"
   xmlns:xlink="http://www.w3.org/1999/xlink"
   xmlns:sodipodi="http://sodipodi.sourceforge.net/DTD/sodipodi-0.dtd"
   xmlns:inkscape="http://www.inkscape.org/namespaces/inkscape"
   width="210mm"
   height="297mm"
   viewBox="0 0 744.09448819 1052.3622047"
   id="svg2"
   version="1.1"
   inkscape:version="0.91 r13725"
   inkscape:export-xdpi="4"
   inkscape:export-ydpi="4"
   sodipodi:docname="document-user-canceled.svg">
  <defs
     id="defs4">
    <linearGradient
       id="linearGradient2224">
      <stop
         id="stop2226"
         offset="0"
         style="stop-color:#7c7c7c;stop-opacity:1;" />
      <stop
         id="stop2228"
         offset="1"
         style="stop-color:#b8b8b8;stop-opacity:1;" />
    </linearGradient>
    <linearGradient
       id="linearGradient15218">
      <stop
         id="stop15220"
         offset="0"
         style="stop-color:#eeeeef;stop-opacity:1;" />
      <stop
         id="stop2736"
         offset="0.59928656"
         style="stop-color:#d3d7cf;stop-opacity:1;" />
      <stop
         id="stop2738"
         offset="0.82758623"
         style="stop-color:#ffffff;stop-opacity:1;" />
      <stop
         id="stop15222"
         offset="1"
         style="stop-color:#d3d7cf;stop-opacity:1;" />
    </linearGradient>
    <pattern
       y="0"
       x="0"
       height="6"
       width="6"
       patternUnits="userSpaceOnUse"
       id="EMFhbasepattern" />
    <linearGradient
       inkscape:collect="always"
       xlink:href="#linearGradient4195"
       id="linearGradient4201"
       x1="286.38269"
       y1="672.9209"
       x2="532.51678"
       y2="367.74933"
       gradientUnits="userSpaceOnUse"
       gradientTransform="matrix(1.1363532,0,0,1.1363532,-56.855583,-53.017136)" />
    <linearGradient
       inkscape:collect="always"
       id="linearGradient4195">
      <stop
         style="stop-color:#4e505d;stop-opacity:1"
         offset="0"
         id="stop4197" />
      <stop
         style="stop-color:#7a8597;stop-opacity:1"
         offset="1"
         id="stop4199" />
    </linearGradient>
  </defs>
  <sodipodi:namedview
     id="base"
     pagecolor="#ffffff"
     bordercolor="#666666"
     borderopacity="1.0"
     inkscape:pageopacity="0.0"
     inkscape:pageshadow="2"
     inkscape:zoom="0.5"
     inkscape:cx="210.69854"
     inkscape:cy="557.0131"
     inkscape:document-units="px"
     inkscape:current-layer="layer1"
     showgrid="false"
     showguides="true"
     inkscape:guide-bbox="true"
     inkscape:window-width="1366"
     inkscape:window-height="721"
     inkscape:window-x="-4"
     inkscape:window-y="-4"
     inkscape:window-maximized="1">
    <sodipodi:guide
       position="315.53572,730.17859"
       orientation="0,1"
       id="guide3338" />
    <sodipodi:guide
       position="351.25,330.17858"
       orientation="0,1"
       id="guide3340" />
    <sodipodi:guide
       position="189.10714,408.8393"
       orientation="1,0"
       id="guide3344" />
    <inkscape:grid
       type="xygrid"
       id="grid3440" />
    <sodipodi:guide
       position="0,0"
       orientation="0,1"
       id="guide3405" />
    <sodipodi:guide
       position="214.125,684.50002"
       orientation="1,0"
       id="guide3407" />
    <sodipodi:guide
       position="0,0"
       orientation="0,1"
       id="guide3409" />
    <sodipodi:guide
       position="589.04521,378.30213"
       orientation="1,0"
       id="guide3411" />
  </sodipodi:namedview>
  <metadata
     id="metadata7">
    <rdf:RDF>
      <cc:Work
         rdf:about="">
        <dc:format>image/svg+xml</dc:format>
        <dc:type
           rdf:resource="http://purl.org/dc/dcmitype/StillImage" />
        <dc:title>document user canceled</dc:title>
        <dc:date>June 2015</dc:date>
        <dc:creator>
          <cc:Agent>
            <dc:title>Johannes Hechler</dc:title>
          </cc:Agent>
        </dc:creator>
        <dc:rights>
          <cc:Agent>
            <dc:title>Johannes Hechler</dc:title>
          </cc:Agent>
        </dc:rights>
        <dc:publisher>
          <cc:Agent>
            <dc:title>RRZE</dc:title>
          </cc:Agent>
        </dc:publisher>
        <dc:contributor>
          <cc:Agent>
            <dc:title>Ute Weber, Hendrik Eggers</dc:title>
          </cc:Agent>
        </dc:contributor>
      </cc:Work>
    </rdf:RDF>
  </metadata>
  <g
     inkscape:label="Ebene 1"
     inkscape:groupmode="layer"
     id="layer1">
    <g
       transform="translate(-0.09125223,-0.33009746)"
       id="g4236">
      <path
         sodipodi:nodetypes="ccccccczcccczcc"
         inkscape:export-ydpi="4.9507661"
         inkscape:export-xdpi="4.9507661"
         id="path4244"
         d="m 259.98583,322.4613 c -11.3891,-0.0191 -17.07143,5.61131 -17.02343,16.83203 -0.048,93.32376 -0.048,252.41135 -0.0176,366.06835 -0.0303,11.34185 5.68557,17.09626 16.97851,17.01953 l 258.38281,0.0703 c 11.42287,-0.0653 17.10688,-5.74774 17.18164,-17.20703 l 0.002,-256.72461 c -26.82812,1.08573 -117.13961,8.12031 -125.08008,-0.0996 -7.94047,-8.21992 -2.17578,-125.93554 -2.17578,-125.93554 0,0 -123.18085,-0.026 -148.24804,-0.0234 z m 167.35937,2.0176 c -0.90129,34.04077 -4.33067,97.43554 2.5,104.74999 6.83067,7.31446 68.18512,1.18786 105.56836,-0.0625 C 509.07647,386.58509 470.60439,350.1381 427.3452,324.4789 Z"
         style="fill:url(#linearGradient4201);fill-opacity:1;fill-rule:evenodd;stroke:none;stroke-width:1px;stroke-linecap:butt;stroke-linejoin:miter;stroke-opacity:1"
         inkscape:connector-curvature="0" />
      <rect
         inkscape:export-ydpi="4.9507661"
         inkscape:export-xdpi="4.9507661"
         ry="9.5070419"
         y="485.84583"
         x="262.01923"
         height="19.091881"
         width="258.87497"
         id="rect4227"
         style="color:#252525;clip-rule:nonzero;display:inline;overflow:visible;visibility:visible;opacity:0.98000004;isolation:auto;mix-blend-mode:normal;color-interpolation:sRGB;color-interpolation-filters:linearRGB;solid-color:#252525;solid-opacity:1;fill:#ffffff;fill-opacity:1;fill-rule:nonzero;stroke:none;stroke-width:50;stroke-linecap:square;stroke-linejoin:round;stroke-miterlimit:4;stroke-dasharray:none;stroke-dashoffset:0;stroke-opacity:1;color-rendering:auto;image-rendering:auto;shape-rendering:auto;text-rendering:auto;enable-background:accumulate" />
      <rect
         inkscape:export-ydpi="4.9507661"
         inkscape:export-xdpi="4.9507661"
         style="color:#252525;clip-rule:nonzero;display:inline;overflow:visible;visibility:visible;opacity:0.98000004;isolation:auto;mix-blend-mode:normal;color-interpolation:sRGB;color-interpolation-filters:linearRGB;solid-color:#252525;solid-opacity:1;fill:#ffffff;fill-opacity:1;fill-rule:nonzero;stroke:none;stroke-width:50;stroke-linecap:square;stroke-linejoin:round;stroke-miterlimit:4;stroke-dasharray:none;stroke-dashoffset:0;stroke-opacity:1;color-rendering:auto;image-rendering:auto;shape-rendering:auto;text-rendering:auto;enable-background:accumulate"
         id="rect4229"
         width="204.18971"
         height="17.677668"
         x="261.66571"
         y="540.83264"
         ry="8.8028164" />
      <rect
         inkscape:export-ydpi="4.9507661"
         inkscape:export-xdpi="4.9507661"
         ry="9.330986"
         y="595.49042"
         x="261.66571"
         height="18.738329"
         width="216.755"
         id="rect4233"
         style="color:#252525;clip-rule:nonzero;display:inline;overflow:visible;visibility:visible;opacity:0.98000004;isolation:auto;mix-blend-mode:normal;color-interpolation:sRGB;color-interpolation-filters:linearRGB;solid-color:#252525;solid-opacity:1;fill:#ffffff;fill-opacity:1;fill-rule:nonzero;stroke:none;stroke-width:50;stroke-linecap:square;stroke-linejoin:round;stroke-miterlimit:4;stroke-dasharray:none;stroke-dashoffset:0;stroke-opacity:1;color-rendering:auto;image-rendering:auto;shape-rendering:auto;text-rendering:auto;enable-background:accumulate" />
    </g>
    <rect
       style="color:#252525;clip-rule:nonzero;display:inline;overflow:visible;visibility:visible;opacity:0.68699999;isolation:auto;mix-blend-mode:normal;color-interpolation:sRGB;color-interpolation-filters:linearRGB;solid-color:#252525;solid-opacity:1;fill:none;fill-opacity:1;fill-rule:nonzero;stroke:none;stroke-width:10;stroke-linecap:butt;stroke-linejoin:round;stroke-miterlimit:4;stroke-dasharray:none;stroke-dashoffset:0;stroke-opacity:1;color-rendering:auto;image-rendering:auto;shape-rendering:auto;text-rendering:auto;enable-background:accumulate"
       id="rect4196"
       width="399.93808"
       height="400"
       x="188.9397"
       y="321.94284"
       inkscape:export-xdpi="4.9507661"
       inkscape:export-ydpi="4.9507661" />
    <rect
       style="fill:none;fill-rule:evenodd;stroke:none;stroke-width:1px;stroke-linecap:butt;stroke-linejoin:miter;stroke-opacity:1"
       id="rect3336"
       width="400"
       height="400"
       x="189.14485"
       y="322.27005"
       inkscape:export-xdpi="4.9499998"
       inkscape:export-ydpi="4.9499998" />
    <path
       inkscape:connector-curvature="0"
       id="path4208"
       d="m 495.40039,530.86133 c -19.60888,4.8e-4 -35.50458,15.81135 -35.50391,35.31445 0.0154,14.23087 8.61771,27.06194 21.82032,32.54688 l 21.83008,-66.87696 c -2.66812,-0.6402 -5.40187,-0.97053 -8.14649,-0.98437 z m 26.14649,0.98437 -21.83008,66.87696 c 4.33217,1.81365 8.9833,2.7537 13.68359,2.76562 19.60888,5.9e-4 35.50544,-15.80941 35.50586,-35.3125 -0.0193,-16.36661 -11.34289,-30.57531 -27.35937,-34.33008 z m -50.88086,75.25586 c -0.0635,0.0562 -0.12194,0.11734 -0.1875,0.17188 l -3.53711,1.91601 c -23.08081,13.67285 -35.35352,42.6528 -35.35352,81.16602 0,8.27213 0.75432,16.28695 2.16211,23.91211 2.08818,4.67145 7.33449,8.09577 13.62109,8.54297 l 0,0.0508 20.67969,0 27.44922,-85.5 -21.5,-15 4.00977,-12.28516 c -2.78596,-0.81672 -5.34087,-1.81159 -7.34375,-2.97461 z m 66.54296,0.29492 c -5.92361,3.32586 -16.75228,5.23438 -24.01367,5.23438 -4.99548,10e-6 -11.56832,-0.90796 -17.18554,-2.55469 L 492,622.36133 l 21.5,15 -27.44922,85.5 72.75781,0 0,-0.004 c 7.05608,-0.0996 12.99935,-3.93758 14.9961,-9.20117 1.33609,-7.44153 2.04883,-15.24951 2.04883,-23.30078 0,-40.31938 -13.83373,-70.57333 -38.64454,-82.95899 z"
       style="fill:#99b000;fill-opacity:1;stroke:#ffffff;stroke-width:35;stroke-linecap:round;stroke-linejoin:round;stroke-miterlimit:4;stroke-dasharray:none;stroke-opacity:1" />
    <path
       inkscape:connector-curvature="0"
       style="fill:#99b000;fill-opacity:1;stroke:none;stroke-width:41.15159225;stroke-linecap:round;stroke-linejoin:round;stroke-opacity:1"
       d="m 495.40039,530.86133 c -19.60888,4.8e-4 -35.50458,15.81135 -35.50391,35.31445 0.0154,14.23087 8.61771,27.06194 21.82032,32.54688 l 21.83008,-66.87696 c -2.66812,-0.6402 -5.40187,-0.97053 -8.14649,-0.98437 z m 26.14649,0.98437 -21.83008,66.87696 c 4.33217,1.81365 8.9833,2.7537 13.68359,2.76562 19.60888,5.9e-4 35.50544,-15.80941 35.50586,-35.3125 -0.0193,-16.36661 -11.34289,-30.57531 -27.35937,-34.33008 z m -50.88086,75.25586 c -0.0635,0.0562 -0.12194,0.11734 -0.1875,0.17188 l -3.53711,1.91601 c -23.08081,13.67285 -35.35352,42.6528 -35.35352,81.16602 0,8.27213 0.75432,16.28695 2.16211,23.91211 2.08818,4.67145 7.33449,8.09577 13.62109,8.54297 l 0,0.0508 20.67969,0 27.44922,-85.5 -21.5,-15 4.00977,-12.28516 c -2.78596,-0.81672 -5.34087,-1.81159 -7.34375,-2.97461 z m 66.54296,0.29492 c -5.92361,3.32586 -16.75228,5.23438 -24.01367,5.23438 -4.99548,10e-6 -11.56832,-0.90796 -17.18554,-2.55469 L 492,622.36133 l 21.5,15 -27.44922,85.5 72.75781,0 0,-0.004 c 7.05608,-0.0996 12.99935,-3.93758 14.9961,-9.20117 1.33609,-7.44153 2.04883,-15.24951 2.04883,-23.30078 0,-40.31938 -13.83373,-70.57333 -38.64454,-82.95899 z"
       id="path2176" />
  </g>
</svg>

<?xml version="1.0" encoding="UTF-8" standalone="no"?>
<!-- Created with Inkscape (http://www.inkscape.org/) -->

<svg
   xmlns:dc="http://purl.org/dc/elements/1.1/"
   xmlns:cc="http://creativecommons.org/ns#"
   xmlns:rdf="http://www.w3.org/1999/02/22-rdf-syntax-ns#"
   xmlns:svg="http://www.w3.org/2000/svg"
   xmlns="http://www.w3.org/2000/svg"
   xmlns:xlink="http://www.w3.org/1999/xlink"
   xmlns:sodipodi="http://sodipodi.sourceforge.net/DTD/sodipodi-0.dtd"
   xmlns:inkscape="http://www.inkscape.org/namespaces/inkscape"
   width="210mm"
   height="297mm"
   viewBox="0 0 744.09448819 1052.3622047"
   id="svg2"
   version="1.1"
   inkscape:version="0.91 r13725"
   inkscape:export-xdpi="4"
   inkscape:export-ydpi="4"
   sodipodi:docname="document-user-canceled.svg">
  <defs
     id="defs4">
    <linearGradient
       id="linearGradient2224">
      <stop
         id="stop2226"
         offset="0"
         style="stop-color:#7c7c7c;stop-opacity:1;" />
      <stop
         id="stop2228"
         offset="1"
         style="stop-color:#b8b8b8;stop-opacity:1;" />
    </linearGradient>
    <linearGradient
       id="linearGradient15218">
      <stop
         id="stop15220"
         offset="0"
         style="stop-color:#eeeeef;stop-opacity:1;" />
      <stop
         id="stop2736"
         offset="0.59928656"
         style="stop-color:#d3d7cf;stop-opacity:1;" />
      <stop
         id="stop2738"
         offset="0.82758623"
         style="stop-color:#ffffff;stop-opacity:1;" />
      <stop
         id="stop15222"
         offset="1"
         style="stop-color:#d3d7cf;stop-opacity:1;" />
    </linearGradient>
    <pattern
       y="0"
       x="0"
       height="6"
       width="6"
       patternUnits="userSpaceOnUse"
       id="EMFhbasepattern" />
    <linearGradient
       inkscape:collect="always"
       xlink:href="#linearGradient4195"
       id="linearGradient4201"
       x1="286.38269"
       y1="672.9209"
       x2="532.51678"
       y2="367.74933"
       gradientUnits="userSpaceOnUse"
       gradientTransform="matrix(1.1363532,0,0,1.1363532,-56.770067,-53.170439)" />
    <linearGradient
       inkscape:collect="always"
       id="linearGradient4195">
      <stop
         style="stop-color:#4e505d;stop-opacity:1"
         offset="0"
         id="stop4197" />
      <stop
         style="stop-color:#7a8597;stop-opacity:1"
         offset="1"
         id="stop4199" />
    </linearGradient>
  </defs>
  <sodipodi:namedview
     id="base"
     pagecolor="#ffffff"
     bordercolor="#666666"
     borderopacity="1.0"
     inkscape:pageopacity="0.0"
     inkscape:pageshadow="2"
     inkscape:zoom="0.70710678"
     inkscape:cx="250.69776"
     inkscape:cy="483.09212"
     inkscape:document-units="px"
     inkscape:current-layer="layer1"
     showgrid="false"
     showguides="true"
     inkscape:guide-bbox="true"
     inkscape:window-width="1366"
     inkscape:window-height="721"
     inkscape:window-x="-4"
     inkscape:window-y="-4"
     inkscape:window-maximized="1">
    <sodipodi:guide
       position="315.53572,730.17859"
       orientation="0,1"
       id="guide3338" />
    <sodipodi:guide
       position="351.25,330.17858"
       orientation="0,1"
       id="guide3340" />
    <sodipodi:guide
       position="189.10714,408.8393"
       orientation="1,0"
       id="guide3344" />
    <inkscape:grid
       type="xygrid"
       id="grid3440" />
    <sodipodi:guide
       position="0,0"
       orientation="0,1"
       id="guide3405" />
    <sodipodi:guide
       position="214.125,684.50002"
       orientation="1,0"
       id="guide3407" />
    <sodipodi:guide
       position="0,0"
       orientation="0,1"
       id="guide3409" />
    <sodipodi:guide
       position="589.04521,378.30213"
       orientation="1,0"
       id="guide3411" />
  </sodipodi:namedview>
  <metadata
     id="metadata7">
    <rdf:RDF>
      <cc:Work
         rdf:about="">
        <dc:format>image/svg+xml</dc:format>
        <dc:type
           rdf:resource="http://purl.org/dc/dcmitype/StillImage" />
        <dc:title>document user canceled</dc:title>
        <dc:date>June 2015</dc:date>
        <dc:creator>
          <cc:Agent>
            <dc:title>Johannes Hechler</dc:title>
          </cc:Agent>
        </dc:creator>
        <dc:rights>
          <cc:Agent>
            <dc:title>Johannes Hechler</dc:title>
          </cc:Agent>
        </dc:rights>
        <dc:publisher>
          <cc:Agent>
            <dc:title>RRZE</dc:title>
          </cc:Agent>
        </dc:publisher>
        <dc:contributor>
          <cc:Agent>
            <dc:title>Ute Weber, Hendrik Eggers</dc:title>
          </cc:Agent>
        </dc:contributor>
      </cc:Work>
    </rdf:RDF>
  </metadata>
  <g
     inkscape:label="Ebene 1"
     inkscape:groupmode="layer"
     id="layer1">
    <g
       transform="translate(-0.00933642,0.06400472)"
       id="g4181">
      <path
         sodipodi:nodetypes="ccccccczcccczcc"
         inkscape:export-ydpi="4.9507661"
         inkscape:export-xdpi="4.9507661"
         id="path4244"
         d="m 250.07134,322.30799 c -11.3891,-0.0191 -17.07143,5.61131 -17.02343,16.83203 -0.048,93.32376 -0.048,252.41135 -0.0176,366.06835 -0.0303,11.34185 5.68557,17.09626 16.97851,17.01953 l 278.38281,0.0703 c 11.42287,-0.0653 17.10688,-5.74774 17.18164,-17.20703 l 0.002,-254.72461 c -26.82812,1.08573 -129.13961,8.12031 -137.08008,-0.0996 -7.94047,-8.21992 -2.17578,-127.93554 -2.17578,-127.93554 0,0 -131.18085,-0.026 -156.24804,-0.0234 z m 179.35937,2.0176 c -0.90129,34.04077 -4.33067,95.43554 2.5,102.74999 6.83067,7.31446 78.87262,1.25036 116.25586,0 -26.33709,-42.5813 -75.49667,-77.09079 -118.75586,-102.74999 z"
         style="fill:url(#linearGradient4201);fill-opacity:1;fill-rule:evenodd;stroke:none;stroke-width:1px;stroke-linecap:butt;stroke-linejoin:miter;stroke-opacity:1"
         inkscape:connector-curvature="0" />
      <rect
         inkscape:export-ydpi="4.9507661"
         inkscape:export-xdpi="4.9507661"
         ry="9.5070419"
         y="485.6925"
         x="262.10477"
         height="19.091881"
         width="258.87497"
         id="rect4227"
         style="color:#252525;clip-rule:nonzero;display:inline;overflow:visible;visibility:visible;opacity:0.98000004;isolation:auto;mix-blend-mode:normal;color-interpolation:sRGB;color-interpolation-filters:linearRGB;solid-color:#252525;solid-opacity:1;fill:#ffffff;fill-opacity:1;fill-rule:nonzero;stroke:none;stroke-width:50;stroke-linecap:square;stroke-linejoin:round;stroke-miterlimit:4;stroke-dasharray:none;stroke-dashoffset:0;stroke-opacity:1;color-rendering:auto;image-rendering:auto;shape-rendering:auto;text-rendering:auto;enable-background:accumulate" />
      <rect
         inkscape:export-ydpi="4.9507661"
         inkscape:export-xdpi="4.9507661"
         style="color:#252525;clip-rule:nonzero;display:inline;overflow:visible;visibility:visible;opacity:0.98000004;isolation:auto;mix-blend-mode:normal;color-interpolation:sRGB;color-interpolation-filters:linearRGB;solid-color:#252525;solid-opacity:1;fill:#ffffff;fill-opacity:1;fill-rule:nonzero;stroke:none;stroke-width:50;stroke-linecap:square;stroke-linejoin:round;stroke-miterlimit:4;stroke-dasharray:none;stroke-dashoffset:0;stroke-opacity:1;color-rendering:auto;image-rendering:auto;shape-rendering:auto;text-rendering:auto;enable-background:accumulate"
         id="rect4229"
         width="204.18971"
         height="17.677668"
         x="261.75122"
         y="540.67932"
         ry="8.8028164" />
      <rect
         inkscape:export-ydpi="4.9507661"
         inkscape:export-xdpi="4.9507661"
         ry="9.330986"
         y="595.3371"
         x="261.75122"
         height="18.738329"
         width="216.755"
         id="rect4233"
         style="color:#252525;clip-rule:nonzero;display:inline;overflow:visible;visibility:visible;opacity:0.98000004;isolation:auto;mix-blend-mode:normal;color-interpolation:sRGB;color-interpolation-filters:linearRGB;solid-color:#252525;solid-opacity:1;fill:#ffffff;fill-opacity:1;fill-rule:nonzero;stroke:none;stroke-width:50;stroke-linecap:square;stroke-linejoin:round;stroke-miterlimit:4;stroke-dasharray:none;stroke-dashoffset:0;stroke-opacity:1;color-rendering:auto;image-rendering:auto;shape-rendering:auto;text-rendering:auto;enable-background:accumulate" />
    </g>
    <rect
       style="fill:none;fill-rule:evenodd;stroke:none;stroke-width:1px;stroke-linecap:butt;stroke-linejoin:miter;stroke-opacity:1"
       id="rect3336"
       width="400"
       height="400"
       x="189.14485"
       y="322.27005"
       inkscape:export-xdpi="4.9499998"
       inkscape:export-ydpi="4.9499998" />
    <g
       id="g4163">
      <path
         style="fill:#99b000;fill-opacity:1;stroke:#ffffff;stroke-width:50;stroke-linecap:round;stroke-linejoin:round;stroke-opacity:1;stroke-miterlimit:4;stroke-dasharray:none"
         d="M 495.40039 530.86133 C 475.79151 530.86181 459.89581 546.67268 459.89648 566.17578 C 459.91188 580.40665 468.51419 593.23772 481.7168 598.72266 L 503.54688 531.8457 C 500.87876 531.2055 498.14501 530.87517 495.40039 530.86133 z M 521.54688 531.8457 L 499.7168 598.72266 C 504.04897 600.53631 508.7001 601.47636 513.40039 601.48828 C 533.00927 601.48887 548.90583 585.67887 548.90625 566.17578 C 548.88695 549.80917 537.56336 535.60047 521.54688 531.8457 z M 470.66602 607.10156 C 470.60252 607.15776 470.54408 607.2189 470.47852 607.27344 L 466.94141 609.18945 C 443.8606 622.8623 431.58789 651.84225 431.58789 690.35547 C 431.58789 698.6276 432.34221 706.64242 433.75 714.26758 C 435.83818 718.93903 441.08449 722.36335 447.37109 722.81055 L 447.37109 722.86133 L 468.05078 722.86133 L 495.5 637.36133 L 474 622.36133 L 478.00977 610.07617 C 475.22381 609.25945 472.6689 608.26458 470.66602 607.10156 z M 537.20898 607.39648 C 531.28537 610.72234 520.4567 612.63086 513.19531 612.63086 C 508.19983 612.63087 501.62699 611.7229 496.00977 610.07617 L 492 622.36133 L 513.5 637.36133 L 486.05078 722.86133 L 558.80859 722.86133 L 558.80859 722.85742 C 565.86467 722.75782 571.80794 718.91984 573.80469 713.65625 C 575.14078 706.21472 575.85352 698.40674 575.85352 690.35547 C 575.85352 650.03609 562.01979 619.78214 537.20898 607.39648 z "
         id="path4208" />
      <path
         id="path2176"
         d="M 495.40039 530.86133 C 475.79151 530.86181 459.89581 546.67268 459.89648 566.17578 C 459.91188 580.40665 468.51419 593.23772 481.7168 598.72266 L 503.54688 531.8457 C 500.87876 531.2055 498.14501 530.87517 495.40039 530.86133 z M 521.54688 531.8457 L 499.7168 598.72266 C 504.04897 600.53631 508.7001 601.47636 513.40039 601.48828 C 533.00927 601.48887 548.90583 585.67887 548.90625 566.17578 C 548.88695 549.80917 537.56336 535.60047 521.54688 531.8457 z M 470.66602 607.10156 C 470.60252 607.15776 470.54408 607.2189 470.47852 607.27344 L 466.94141 609.18945 C 443.8606 622.8623 431.58789 651.84225 431.58789 690.35547 C 431.58789 698.6276 432.34221 706.64242 433.75 714.26758 C 435.83818 718.93903 441.08449 722.36335 447.37109 722.81055 L 447.37109 722.86133 L 468.05078 722.86133 L 495.5 637.36133 L 474 622.36133 L 478.00977 610.07617 C 475.22381 609.25945 472.6689 608.26458 470.66602 607.10156 z M 537.20898 607.39648 C 531.28537 610.72234 520.4567 612.63086 513.19531 612.63086 C 508.19983 612.63087 501.62699 611.7229 496.00977 610.07617 L 492 622.36133 L 513.5 637.36133 L 486.05078 722.86133 L 558.80859 722.86133 L 558.80859 722.85742 C 565.86467 722.75782 571.80794 718.91984 573.80469 713.65625 C 575.14078 706.21472 575.85352 698.40674 575.85352 690.35547 C 575.85352 650.03609 562.01979 619.78214 537.20898 607.39648 z "
         style="fill:#99b000;fill-opacity:1;stroke:none;stroke-width:41.15159225;stroke-linecap:round;stroke-linejoin:round;stroke-opacity:1" />
    </g>
  </g>
</svg>
